X: 4022
T: Blackwater, The
R: polka
M: 2/4
K: Amajor
E>F AB|ce cd/c/|BA/B/ cA|BA FA|
E>F AB|ce cd/c/|BA/B/ c/e/c/B/|A2 AF:|
e|a2 f/g/a/f/|ec ec/B/|A2Bc|BA FA|
a2 f/g/a/f/|ec ec/B/|A2Bc|BA Ae||
a2 f/g/a/f/|ec ec/B/|A2Bc|BA FA|
E>F AB|ce cd/c/|BA/B/ c/e/c/B/|A2 AF||

